img/circle-icon.svg

<svg width="44" height="43" viewBox="0 0 44 43" fill="none" xmlns="http://www.w3.org/2000/svg">
<path fill-rule="evenodd" clip-rule="evenodd" d="M21.7322 41.6432C32.823 41.6432 41.8139 32.6523 41.8139 21.5615C41.8139 10.4706 32.823 1.47974 21.7322 1.47974C10.6414 1.47974 1.65048 10.4706 1.65048 21.5615C1.65048 32.6523 10.6414 41.6432 21.7322 41.6432ZM16.1558 21.5615C16.1558 18.4906 18.6619 15.9846 21.7327 15.9846C24.8035 15.9846 27.3095 18.4906 27.3095 21.5615C27.3095 24.6323 24.8035 27.1383 21.7327 27.1383C18.6619 27.1383 16.1558 24.6323 16.1558 21.5615ZM13.1519 21.5615C13.1519 26.3099 16.9842 30.1422 21.7327 30.1422C26.4812 30.1422 30.3134 26.3099 30.3134 21.5615C30.3134 16.813 26.4812 12.9807 21.7327 12.9807C16.9842 12.9807 13.1519 16.813 13.1519 21.5615ZM28.6609 12.6293C28.6609 13.7379 29.5562 14.6333 30.6649 14.6333C30.9281 14.6336 31.1889 14.582 31.4322 14.4814C31.6754 14.3808 31.8965 14.2332 32.0826 14.047C32.2688 13.8609 32.4164 13.6398 32.517 13.3966C32.6176 13.1533 32.6692 12.8925 32.6689 12.6293C32.6689 11.5206 31.7735 10.6253 30.6649 10.6253C29.5562 10.6253 28.6609 11.5206 28.6609 12.6293Z" fill="#928A97"/>
</svg>

<svg width="44" height="43" fill="none" xmlns="http://www.w3.org/2000/svg"><path fill-rule="evenodd" clip-rule="evenodd" d="M21.732 41.643c11.091 0 20.082-8.99 20.082-20.082 0-11.09-8.991-20.081-20.082-20.081-11.09 0-20.082 8.99-20.082 20.081s8.991 20.082 20.082 20.082Zm-5.576-20.082a5.589 5.589 0 0 1 5.577-5.576 5.589 5.589 0 0 1 5.576 5.576 5.589 5.589 0 0 1-5.576 5.577 5.589 5.589 0 0 1-5.577-5.577Zm-3.004 0a8.569 8.569 0 0 0 8.58 8.581 8.569 8.569 0 0 0 8.581-8.58 8.569 8.569 0 0 0-8.58-8.581 8.569 8.569 0 0 0-8.581 8.58ZM28.66 12.63a2.002 2.002 0 0 0 2.771 1.852 2.001 2.001 0 0 0 1.237-1.852 2.002 2.002 0 0 0-2.004-2.004 2.002 2.002 0 0 0-2.004 2.004Z" fill="#928A97"/></svg>
